!! 00015] TT[TB
!! Zh. Ch. 1-1577, NN), J 3443)
!!!OTL: Dui hua I
!!!ARE: Asia, China,ÿAnhui
!! Ethnic Group: Han
!! MM, Komposition
!!!SCT: C0685B
!!!YEM: Copyright 1995, estate of Helmut Schaffrath.
**kern
*ICvox
*Ivox
*M2/4
*k[b-e-]
*B-:
{8ccc
8ccc
8fff
16fff
16ddd
=1
8ccc
16ddd
16ccc
4bb-
=2
8ddd
16ddd
16ccc
8bb-
16bb-
16ccc
=3
8gg
4.ff}
=4
{8.bb-
16bb-
8dd
8ff
=5
8gg
16gg
16ff
4gg
=6
8ccc
8gg
8bb-
8ccc
=7
8gg
4.ff}
=8
{16fff
16ggg
16fff
16ddd
8ccc
16ddd
16fff
=9
8ddd
16ddd
16ccc
4bb-
=10
8ddd
16ddd
16ccc
8bb-
8ccc
=11
8gg
4.ff}
=12
{8.bb-
16bb-
8dd
8ff
=13
8gg
16gg
16ff
4gg
=14
8ccc
8gg
8bb-
8ccc
=15
8gg
4.ff}
=16
{4fff
8.ddd
16fff
=17
8ggg
16ggg
16ddd
4fff
=18
8.fff
16ggg
8ddd
8ccc
=19
16ccc
16ddd
4.bb-}
=20
{8ddd
16ccc
16ddd
8.fff
16ddd
=21
8ccc
16ccc
16ggg
4bb-
=22
8ddd
16ddd
16ccc
8bb-
8ff
=23
8gg
4.ff}
=24
{8.bb-
16bb-
8dd
8ff
=25
8gg
16gg
16ff
4gg
=26
8ddd
16ddd
16ccc
8bb-
16bb-
16ggg
=27
8ff
4.gg}
=28
{8ddd
16ddd
16ccc
8bb-
16bb-
16ggg
=29
8ff
4gg
8bb-
=30
8ddd
16ddd
16ccc
8bb-
8ff
=31
8gg
4.ff}
=32
{4fff
8.ddd
16fff
=33
8.ggg
16ddd
8fff
8ddd
=34
8.fff
16ggg
8ddd
8ccc
=35
16ccc
16ddd
4.bb-}
=36
{8ddd
16ccc
16ddd
8.fff
16ddd
=37
8.ccc
16gg
4bb-
=38
8.ddd
16ccc
8bb-
8ff
=39
8gg
4.ff}
=40
{4bb-
8.dd
16ff
=41
8gg
16gg
16ff
8.gg
16bb-
=42
16ddd
16fff
16ddd
16ccc
8bb-
16bb-
16gg
=43
8ff
4.gg}
=44
{8.ddd
16ccc
8bb-
8gg
=45
8ff
4gg
8bb-
=46
8.ddd
16ccc
8bb-
8ff
=47
8gg
4.ff}
=48
{8.fff
16ggg
8.ddd
16fff
=49
16ggg
16fff
16ggg
16ddd
8.fff
16fff
=50
8.fff
16ggg
8ddd
8ccc
=51
16ddd
16fff
16ddd
16ccc
8.bb-}
{16gg
=52
8bb-
16gg
16bb-
4ff
=53
16ff
16gg
16ff
16gg
8bb-
8gg
=54
8.bb-
16ccc
8ddd
8fff
=55
16bb-
16ccc
16bb-
16gg
4ff}
=56
{8ddd
4fff
16ddd
16ccc
=57
16ddd
16fff
16ddd
16ccc
8bb-
8gg
=58
8.bb-
16ccc
8ddd
8fff
=59
16ggg
16fff
16ddd
16ccc
8.bb-}
{16ccc
=60
8bb-
16gg
16bb-
4ff
=61
16ff
16gg
16ff
16gg
8.bb-
16gg
=62
8.ddd
16ccc
8bb-
8ff
=63
8gg
8gg
8r}
{8ff
=64
8gg
8gg
8r
8ff
=65
8gg
8gg
8r
8bb-
=66
8.ccc
16ddd
16ccc
16bb-
8gg
=67
8ff
16r}
{16gg
8ff
8gg
=68
16bb-
16ccc
16ddd
16fff
8bb-
8ff
=69
16gg
16bb-
4.ff}
=70
{8fff
8fff
8ddd
8fff
=71
8ggg
16ggg
16ddd
4fff}
=72
{16fff
16ggg
16fff
16ddd
16ccc
16ddd
16fff
16ddd
=73
16ccc
16ddd
4bb-
8ff
=74
8gg
16ff
16gg
8bb-
8r}
=75
{8bb-
4ff
8gg
=76
8bb-
16ccc
16ddd
16ccc
16bb-
8gg
=77
2fff}
==
!!!AGN: Xiaodiao, Huangmeixi
!! Kopie der Noten.
!!    +++Dieses Lied wurde GETEILT!!! Der erste Teil ist im vorherigen
!!    Dokument unter gleicher Signatur B kodiert.
!!    Ergaenzungen: Oktavierungspunkte: T.34,1, +3); Punktierungen: T.17,2
!!   , +3_.); Tonlaenge: T.46,2, +1_); schlecht lesbar T.72,1.
!!!ONB: ESAC (Essen Associative Code) Database: CHINA
!!!AMT: simple duple
!!!AIN: vox
!!!EED: Helmut Schaffrath
!!!EEV: 1.0
*-
